icons/lines/box-add.svg

<svg xmlns="http://www.w3.org/2000/svg" width="24" height="24" viewBox="0 0 24 24" fill="none" stroke="currentColor" stroke-width="2" stroke-linecap="round" stroke-linejoin="round" >
  <path d="M23 18C23 18.75 22.79 19.46 22.42 20.06C22.21 20.42 21.94 20.74 21.63 21C20.93 21.63 20.01 22 19 22C17.78 22 16.69 21.45 15.97 20.59C15.95 20.56 15.92 20.54 15.9 20.51C15.78 20.37 15.67 20.22 15.58 20.06C15.21 19.46 15 18.75 15 18C15 16.74 15.58 15.61 16.5 14.88C17.19 14.33 18.06 14 19 14C20 14 20.9 14.36 21.6 14.97C21.72 15.06 21.83 15.17 21.93 15.28C22.59 16 23 16.95 23 18Z" stroke-miterlimit="10"/>
  <path d="M20.4898 17.98H17.5098" stroke-miterlimit="10"/>
  <path d="M19 16.52V19.51" stroke-miterlimit="10"/>
  <path d="M3.16992 7.43994L11.9999 12.5499L20.7699 7.46991"/>
  <path d="M12 21.6099V12.5399"/>
  <path d="M21.6101 9.17V14.83C21.6101 14.88 21.6101 14.92 21.6001 14.97C20.9001 14.36 20.0001 14 19.0001 14C18.0601 14 17.1901 14.33 16.5001 14.88C15.5801 15.61 15.0001 16.74 15.0001 18C15.0001 18.75 15.2101 19.46 15.5801 20.06C15.6701 20.22 15.7801 20.37 15.9001 20.51L14.0701 21.52C12.9301 22.16 11.0701 22.16 9.93013 21.52L4.59013 18.56C3.38013 17.89 2.39014 16.21 2.39014 14.83V9.17C2.39014 7.79 3.38013 6.11002 4.59013 5.44002L9.93013 2.48C11.0701 1.84 12.9301 1.84 14.0701 2.48L19.4101 5.44002C20.6201 6.11002 21.6101 7.79 21.6101 9.17Z"/>
  </svg>

<svg xmlns="http://www.w3.org/2000/svg" width="24" height="24" viewBox="0 0 24 24" fill="none" stroke="currentColor" stroke-width="2" stroke-linecap="round" stroke-linejoin="round">
  <path d="M12 21.61v-9.07" />
  <path d="M14.07 21.52c-1.14.64-3 .64-4.14 0l-5.34-2.96c-1.21-.67-2.2-2.35-2.2-3.73V9.17c0-1.38.99-3.06 2.2-3.73l5.34-2.96c1.14-.64 3-.64 4.14 0l5.34 2.96c1.21.67 2.2 2.35 2.2 3.73v5.66c0 .05 0 .09-.01.14-.7-.61-1.6-.97-2.6-.97-.94 0-1.81.33-2.5.88a3.97 3.97 0 0 0-.92 5.18A3.9 3.9 0 0 1 15 18c0-1.26.58-2.39 1.5-3.12.69-.55 1.56-.88 2.5-.88 1 0 1.9.36 2.6.97.12.09.23.2.33.31C22.59 16 23 16.95 23 18c0 .75-.21 1.46-.58 2.06-.21.36-.48.68-.79.94-.7.63-1.62 1-2.63 1-1.22 0-2.31-.55-3.03-1.41-.02-.03-.05-.05-.07-.08z" />
  <path d="M19 16.52v2.99" />
  <path d="M20.49 17.98h-2.98" />
  <path d="M3.17 7.44 12 12.55l8.77-5.08" />
</svg>
